src/Icon/svgs/gear.svg

<svg width="24" height="24" viewBox="0 0 24 24" fill="none" xmlns="http://www.w3.org/2000/svg">
<path fill-rule="evenodd" clip-rule="evenodd" d="M20.8733 18.6798L18.6562 20.897L15.8183 20.1065L15.0067 20.4412L13.5498 22.999H10.4153L8.96644 20.4325L8.15567 20.0925L5.31809 20.8733L3.10197 18.6572L3.89252 15.8193L3.55774 15.0076L1 13.5496V10.4151L3.56758 8.96634L3.90748 8.15567L3.1267 5.31809L5.34198 3.10281L8.17985 3.89446L8.99072 3.56004L10.4454 1H13.5808L15.0296 3.56758L15.8403 3.90748L18.6774 3.12683L20.8961 5.34235L20.1055 8.18067L20.44 8.99173L23 10.4464V13.5818L20.4327 15.0305L20.0925 15.843L20.8733 18.6798ZM12 16C9.79086 16 8 14.2091 8 12C8 9.79086 9.79086 8 12 8C14.2091 8 16 9.79086 16 12C16 14.2091 14.2091 16 12 16Z" fill="#1B1C1D"/>
</svg>

<svg xmlns="http://www.w3.org/2000/svg" width="24" height="24" fill="none"  xmlns:v="https://vecta.io/nano"><path fill-rule="evenodd" d="M20.873 18.68l-2.217 2.217-2.838-.79-.812.335-1.457 2.558h-3.134l-1.449-2.566-.811-.34-2.838.781-2.216-2.216.791-2.838-.335-.812L1 13.55v-3.134l2.568-1.449.34-.811-.781-2.838 2.215-2.215 2.838.792.811-.334L10.445 1h3.135l1.449 2.568.811.34 2.837-.781 2.219 2.216-.791 2.838.335.811L23 10.446v3.135l-2.567 1.449-.34.813.781 2.837zM12 16a4 4 0 1 1 0-8 4 4 0 1 1 0 8z" fill="#1b1c1d"/></svg>
